packages/react-icons/icons/notification-paused.svg

<svg width="24" height="24" viewBox="0 0 24 24" xmlns="http://www.w3.org/2000/svg">
<path fill-rule="evenodd" clip-rule="evenodd" d="M19.2902 17.04L18.0002 15.75V10.75C18.0002 7.68 16.3602 5.11 13.5002 4.43V3.75C13.5002 2.92 12.8302 2.25 12.0002 2.25C11.1702 2.25 10.5002 2.92 10.5002 3.75V4.43C7.63017 5.11 6.00017 7.67 6.00017 10.75V15.75L4.71017 17.04C4.08017 17.67 4.52017 18.75 5.41017 18.75H18.5802C19.4802 18.75 19.9202 17.67 19.2902 17.04ZM12.0002 21.75C13.1002 21.75 14.0002 20.85 14.0002 19.75H10.0002C10.0002 20.85 10.8902 21.75 12.0002 21.75ZM14.2002 9.92C14.3902 9.68 14.5002 9.39 14.5002 9.08C14.5002 8.34 13.9102 7.75 13.1802 7.75H10.4002C9.90017 7.75 9.50017 8.15 9.50017 8.65C9.50017 9.15 9.90017 9.55 10.4002 9.55H12.3002L9.80017 12.58C9.61017 12.82 9.50017 13.11 9.50017 13.42V13.43C9.50017 14.16 10.0902 14.75 10.8202 14.75H13.6002C14.1002 14.75 14.5002 14.35 14.5002 13.85C14.5002 13.35 14.1002 12.95 13.6002 12.95H11.7002L14.2002 9.92Z" />
</svg>

<svg xmlns="http://www.w3.org/2000/svg" width="24" height="24"><path fill-rule="evenodd" d="M19.29 17.04 18 15.75v-5c0-3.07-1.64-5.64-4.5-6.32v-.68c0-.83-.67-1.5-1.5-1.5s-1.5.67-1.5 1.5v.68C7.63 5.11 6 7.67 6 10.75v5l-1.29 1.29c-.63.63-.19 1.71.7 1.71h13.17c.9 0 1.34-1.08.71-1.71ZM12 21.75c1.1 0 2-.9 2-2h-4a2 2 0 0 0 2 2Zm2.2-11.83c.19-.24.3-.53.3-.84 0-.74-.59-1.33-1.32-1.33H10.4c-.5 0-.9.4-.9.9s.4.9.9.9h1.9l-2.5 3.03c-.19.24-.3.53-.3.84v.01c0 .73.59 1.32 1.32 1.32h2.78c.5 0 .9-.4.9-.9s-.4-.9-.9-.9h-1.9l2.5-3.03Z" clip-rule="evenodd"/></svg>
